X:598
T:Aitken Drum #2, The
C:Joe Buchanan's Scottish Tome - Page 169.3
I:169 3
Z:Carl Allison
R:Reel
L:1/8
M:4/4
K:G
GA | "G"B2 B2 "G/B"cBAG | "C"E4 G2 > "A7/C#"E2 | "G"D2 D2 E2 "Em"G2 | "A7"B2 A2 "D7"A2 GA |
"G"B2 B2 "G/B"cBAG | "C"E4 G2 > "A&/C#"E2 | "D7"D2 D2 E2 F2 | "G"G4 G2 :|
GA | "B"B2 B2 B2 "G/D"AG | "C"c4 d2 > c2 | "G"B2 d2 "Em"B2 G2 | "A7"B2 A2 "D7"A2 GA |
"G"B2 B2 "G/B"cBAG | "C"E4 G2 > "A7/C#"E2 | "G"D2 D2 "D7"E2 F2 | "G"G4 G2 :|

